modules/hawcons-filled/icons/middle-finger.svg

<?xml version="1.0" encoding="UTF-8" standalone="no"?>
<svg width="32px" height="32px" viewBox="0 0 32 32" version="1.1" xmlns="http://www.w3.org/2000/svg" xmlns:xlink="http://www.w3.org/1999/xlink" xmlns:sketch="http://www.bohemiancoding.com/sketch/ns">
    <!-- Generator: Sketch 3.0.3 (7891) - http://www.bohemiancoding.com/sketch -->
    <title>icon 1 middle finger</title>
    <desc>Created with Sketch.</desc>
    <defs></defs>
    <g id="Page-1" stroke="none" stroke-width="1" fill="none" fill-rule="evenodd" sketch:type="MSPage">
        <g id="icon-1-middle-finger" sketch:type="MSArtboardGroup" fill="#929292">
            <path d="M27.1151466,21.5 C27.1151466,25.6421358 23.7572825,29 19.6151466,29 C19.6147264,29 19.6143061,29 19.6138858,28.9999999 C15.8554315,28.9995418 13.6251425,26.9488875 11.8625221,23.9830936 C7.95050863,17.4007216 5.14900956,14.3887562 6.23617935,13.2957153 C7.34677642,12.1791206 10.056747,14.5979243 12.1151466,16.7983451 L12.1151466,12.5064385 C12.1151466,11.6715406 12.7867195,11 13.6151466,11 C14.4493494,11 15.1151466,11.6744555 15.1151466,12.5064385 L15.1151466,15 L15.8709721,15 L15.8709721,15 C15.9514326,14.9535525 16.032836,14.9085561 16.1151466,14.8650465 L16.1151466,14.8650465 L16.1151466,4.49089813 C16.1151466,3.67622006 16.7867195,3 17.6151466,3 C18.4493494,3 19.1151466,3.66749783 19.1151466,4.49089813 L19.1151466,14 L20.1151466,14 L20.1151466,12.4955452 C20.1151466,11.6795545 20.7867195,11 21.6151466,11 C22.4493494,11 23.1151466,11.6695784 23.1151466,12.4955452 L23.1151466,14.8650465 L23.1151466,14.8650465 C23.1974573,14.9085561 23.2788607,14.9535525 23.3593212,15 L24.1151466,15 L24.1151466,13.5063976 C24.1151466,12.6764628 24.7867195,12 25.6151466,12 C26.4493494,12 27.1151466,12.6744372 27.1151466,13.5063976 L27.1151466,17.2468012 L27.1151466,21.5 L27.1151466,21.5 Z" id="middle-finger" sketch:type="MSShapeGroup"></path>
        </g>
    </g>
</svg>

<svg width="32" height="32" xmlns="http://www.w3.org/2000/svg"><path d="M27.115 21.5a7.5 7.5 0 0 1-7.5 7.5h-.001c-3.759 0-5.989-2.051-7.751-5.017-3.912-6.582-6.714-9.594-5.627-10.687 1.11-1.117 3.82 1.302 5.88 3.502v-4.292a1.5 1.5 0 1 1 3 0V15h.755c.08-.046.162-.091.244-.135V4.491a1.501 1.501 0 0 1 3 0V14h1v-1.504c0-.816.672-1.496 1.5-1.496.834 0 1.5.67 1.5 1.496v2.369c.082.044.164.089.244.135h.756v-1.494a1.5 1.5 0 1 1 3 0V21.5z" fill="#929292" fill-rule="evenodd"/></svg>
